Resources/Private/Icons/solid/jet-fighter.svg

<svg xmlns="http://www.w3.org/2000/svg" viewBox="0 0 640 512"><!--! Font Awesome Free 6.2.0 by @fontawesome - https://fontawesome.com License - https://fontawesome.com/license/free (Icons: CC BY 4.0, Fonts: SIL OFL 1.1, Code: MIT License) Copyright 2022 Fonticons, Inc. --><path d="M160 24c0-13.3 10.7-24 24-24H296c13.3 0 24 10.7 24 24s-10.7 24-24 24H280L384 192H500.4c7.7 0 15.3 1.4 22.5 4.1L625 234.4c9 3.4 15 12 15 21.6s-6 18.2-15 21.6L522.9 315.9c-7.2 2.7-14.8 4.1-22.5 4.1H384L280 464h16c13.3 0 24 10.7 24 24s-10.7 24-24 24H184c-13.3 0-24-10.7-24-24s10.7-24 24-24h8V320H160l-54.6 54.6c-6 6-14.1 9.4-22.6 9.4H64c-17.7 0-32-14.3-32-32V288c-17.7 0-32-14.3-32-32s14.3-32 32-32V160c0-17.7 14.3-32 32-32H82.7c8.5 0 16.6 3.4 22.6 9.4L160 192h32V48h-8c-13.3 0-24-10.7-24-24zM80 240c-8.8 0-16 7.2-16 16s7.2 16 16 16h64c8.8 0 16-7.2 16-16s-7.2-16-16-16H80z"/></svg>

<svg xmlns="http://www.w3.org/2000/svg" viewBox="0 0 640 512"><!--! Font Awesome Free 6.1.1 by @fontawesome - https://fontawesome.com License - https://fontawesome.com/license/free (Icons: CC BY 4.0, Fonts: SIL OFL 1.1, Code: MIT License) Copyright 2022 Fonticons, Inc. --><path d="M160 24C160 10.75 170.7 0 184 0H296C309.3 0 320 10.75 320 24C320 37.25 309.3 48 296 48H280L384 192H500.4C508.1 192 515.7 193.4 522.9 196.1L625 234.4C634 237.8 640 246.4 640 256C640 265.6 634 274.2 625 277.6L522.9 315.9C515.7 318.6 508.1 320 500.4 320H384L280 464H296C309.3 464 320 474.7 320 488C320 501.3 309.3 512 296 512H184C170.7 512 160 501.3 160 488C160 474.7 170.7 464 184 464H192V320H160L105.4 374.6C99.37 380.6 91.23 384 82.75 384H64C46.33 384 32 369.7 32 352V288C14.33 288 0 273.7 0 256C0 238.3 14.33 224 32 224V160C32 142.3 46.33 128 64 128H82.75C91.23 128 99.37 131.4 105.4 137.4L160 192H192V48H184C170.7 48 160 37.25 160 24V24zM80 240C71.16 240 64 247.2 64 256C64 264.8 71.16 272 80 272H144C152.8 272 160 264.8 160 256C160 247.2 152.8 240 144 240H80z"/></svg>
